component-icons/svg/autocomplete.svg

<?xml version="1.0" encoding="utf-8"?>
<!-- Generator: Adobe Illustrator 24.2.3, SVG Export Plug-In . SVG Version: 6.00 Build 0)  -->
<svg version="1.1" id="Layer_1" xmlns="http://www.w3.org/2000/svg" xmlns:xlink="http://www.w3.org/1999/xlink" x="0px" y="0px"
	 width="24px" height="24px" viewBox="0 0 24 24" enable-background="new 0 0 24 24" xml:space="preserve">
<path d="M18,11H6v2h10L18,11z M12,0H0v4h12V0z M6,17h6l2-2H6V17z M14,1v2h8l2-2H14z M6,7v2h10l2-2H6z M20,19.2L17.2,22H4V6H2v18h16
	l4-4l0,0V5h-2V19.2z"/>
</svg>

<svg id="Layer_1" data-name="Layer 1" xmlns="http://www.w3.org/2000/svg" viewBox="0 0 24 24">
  <defs>
    <style>
      .cls-1 {
        fill: gray;
      }
    </style>
  </defs>
  <title>autocomplete</title>
  <path class="cls-1" d="M18,11H6v2H16ZM12,0H0V4H12ZM6,17h6l2-2H6ZM14,1V3h8l2-2ZM6,7V9H16l2-2ZM20,19.17,17.17,22H4V6H2V24H18l4-4h0V5H20Z"/>
</svg>
